!!!OTL: Song of the Gurkha Boys
!!!ARE: India
!!!AGN: North Indain Folk-song
!!!AMD: Pentatonic
**kern
=1-
*clefG2
*k[b-]
*M2/4
*MM132
{8a/L
8a/J
8cc/L
8a/J
=2
4cc\}
{8dd\L
8cc\J
=3
8ff\L
8ff\J
8dd\L
8dd\J
=4
4cc\}
{8a\L
8cc\J
=5
8dd\L
8dd\J
8cc\L
8a\J
=6
4g/}
4r
=7
{8dd\L
8dd\J
8cc\L
8a\J
=8
4g/}
4r
=9
{8f/L
8f/J
8a/L
8a/J
=10
8g/L
8f/J
8d/L
8d/J}
=11
{8f/L
8f/J
8g/L
8f/J
=12
4g/}
{(8a/L
8g/J)
=13
8f/L
8f/J
8g/L
8f/J
=14
4g/}
4r
==
*-
